X: 4364
T: WHAT HEAR I? (Lucia di Lammermoor.)
%R: air, jig, march
B: James Kerr "Merry Melodies" v.4 p.39 #364
Z: 2016 John Chambers <jc:trillian.mit.edu>
M: 6/8
L: 1/8
K: G
|:\
BBB BBB | B3- B2B |\
c2c B2B | (A3 G2)B |\
(A3 G2)B | (A3 G2)D |\
[1 G2G B2B | d3- d2D :|\
[2 A2A ABA | G3- G2 H|:\
D |\
DDD DDD | A3- A2B |\
c2A B2G |[1 A3- A2 :|\
[2 [d3-D3-] [d2D2]"^D.C."D |]

%%sep 1 1 500
%%sep 1 1 500

